; G-Code generated by Simplify3D(R) Version 3.1.0
; Sep 25, 2016 at 6:24:13 PM
; Settings Summary
;   processName,Process1
;   applyToModels,20_cube
;   profileName,Lulzbot TAZ 6 PLA
;   profileVersion,2016-09-25 14:22:03
;   baseProfile,LulzBot TAZ 6 Single
;   printMaterial,PLA
;   printQuality,Fast
;   printExtruders,
;   extruderName,Primary Extruder
;   extruderToolheadNumber,0
;   extruderDiameter,0.5
;   extruderAutoWidth,0
;   extruderWidth,0.5
;   extrusionMultiplier,0.9
;   extruderUseRetract,1
;   extruderRetractionDistance,1.5
;   extruderExtraRestartDistance,0
;   extruderRetractionZLift,0
;   extruderRetractionSpeed,1800
;   extruderUseCoasting,0
;   extruderCoastingDistance,0.2
;   extruderUseWipe,0
;   extruderWipeDistance,5
;   primaryExtruder,0
;   layerHeight,0.3
;   topSolidLayers,4
;   bottomSolidLayers,3
;   perimeterOutlines,3
;   printPerimetersInsideOut,1
;   startPointOption,2
;   startPointOriginX,0
;   startPointOriginY,0
;   startPointOriginZ,300
;   sequentialIslands,0
;   spiralVaseMode,0
;   firstLayerHeightPercentage,141
;   firstLayerWidthPercentage,125
;   firstLayerUnderspeed,0.5
;   useRaft,0
;   raftExtruder,0
;   raftLayers,3
;   raftOffset,3
;   raftSeparationDistance,0.14
;   raftInfill,85
;   disableRaftBaseLayers,0
;   useSkirt,1
;   skirtExtruder,0
;   skirtLayers,1
;   skirtOutlines,2
;   skirtOffset,6
;   usePrimePillar,0
;   primePillarExtruder,999
;   primePillarWidth,12
;   primePillarLocation,7
;   primePillarSpeedMultiplier,1
;   useOozeShield,0
;   oozeShieldExtruder,999
;   oozeShieldOffset,2
;   oozeShieldOutlines,1
;   oozeShieldSidewallShape,1
;   oozeShieldSidewallAngle,30
;   oozeShieldSpeedMultiplier,1
;   infillExtruder,0
;   internalInfillPattern,Rectilinear
;   externalInfillPattern,Rectilinear
;   infillPercentage,15
;   outlineOverlapPercentage,15
;   infillExtrusionWidthPercentage,200
;   minInfillLength,5
;   infillLayerInterval,1
;   infillAngles,45,-45
;   overlapInfillAngles,0
;   generateSupport,0
;   supportExtruder,0
;   supportInfillPercentage,30
;   supportExtraInflation,0
;   denseSupportLayers,0
;   denseSupportInfillPercentage,70
;   supportLayerInterval,1
;   supportHorizontalPartOffset,0.3
;   supportUpperSeparationLayers,1
;   supportLowerSeparationLayers,1
;   supportType,0
;   supportGridSpacing,4
;   maxOverhangAngle,45
;   supportAngles,0
;   temperatureName,Primary Extruder,Heated Bed
;   temperatureNumber,0,0
;   temperatureSetpointCount,1,1
;   temperatureSetpointLayers,1,1
;   temperatureSetpointTemperatures,205,60
;   temperatureStabilizeAtStartup,1,1
;   temperatureHeatedBed,0,1
;   temperatureRelayBetweenLayers,0,0
;   temperatureRelayBetweenLoops,0,0
;   fanLayers,1,2
;   fanSpeeds,0,100
;   blipFanToFullPower,1
;   adjustSpeedForCooling,1
;   minSpeedLayerTime,15
;   minCoolingSpeedSlowdown,20
;   increaseFanForCooling,0
;   minFanLayerTime,45
;   maxCoolingFanSpeed,100
;   increaseFanForBridging,0
;   bridgingFanSpeed,100
;   use5D,1
;   relativeEdistances,0
;   allowEaxisZeroing,1
;   independentExtruderAxes,0
;   includeM10123,0
;   stickySupport,1
;   applyToolheadOffsets,0
;   gcodeXoffset,0
;   gcodeYoffset,0
;   gcodeZoffset,0
;   overrideMachineDefinition,1
;   machineTypeOverride,0
;   strokeXoverride,280
;   strokeYoverride,280
;   strokeZoverride,250
;   originOffsetXoverride,0
;   originOffsetYoverride,0
;   originOffsetZoverride,0
;   homeXdirOverride,-1
;   homeYdirOverride,-1
;   homeZdirOverride,-1
;   flipXoverride,1
;   flipYoverride,-1
;   flipZoverride,1
;   toolheadOffsets,0,0|0,0|0,0|0,0|0,0|0,0
;   overrideFirmwareConfiguration,1
;   firmwareTypeOverride,RepRap (Marlin/Repetier/Sprinter)
;   GPXconfigOverride,r2
;   baudRateOverride,250000
;   overridePrinterModels,1
;   printerModelsOverride,LulzBot_TAZ6.stl
;   startingGcode,;This profile is designed specifically for LulzBot TAZ 6 3D Printer by Lulzbot.com,G26                          ; clear potential 'probe fail' condition,G21                          ; set units to Millimetres,M107                         ; disable fans,G90                          ; absolute positioning,M82                          ; set extruder to absolute mode,G92 E0                       ; set extruder position to 0,M140 S[bed0_temperature]     ; get bed heating up,M117 Print by John Bryant    ; LCD status message,G28 XY                       ; home X and Y,G1 X-19 Y258 F1000           ; move to safe homing position,M109 S160                    ; soften filament for z homing,G28 Z                        ; home Z,M104 S150                    ; wipe temp,G1 E-30 F100                 ; suck up 12mm of filament,G1 X-15 Y100 F3000           ; move above wiper pad,G1 Z1                        ; push nozzle into wiper,G1 X-17 Y95 F1000            ; slow wipe,G1 X-17 Y90 F1000            ; slow wipe,G1 X-17 Y85 F1000            ; slow wipe,G1 X-15 Y90 F1000            ; slow wipe,G1 X-17 Y80 F1000            ; slow wipe,G1 X-15 Y95 F1000            ; slow wipe,G1 X-17 Y75 F2000            ; fast wipe,G1 X-15 Y65 F2000            ; fast wipe,G1 X-17 Y70 F2000            ; fast wipe,G1 X-15 Y60 F2000            ; fast wipe,G1 X-17 Y55 F2000            ; fast wipe,G1 X-15 Y50 F2000            ; fast wipe,G1 X-17 Y40 F2000            ; fast wipe,G1 X-15 Y45 F2000            ; fast wipe,G1 X-17 Y35 F2000            ; fast wipe,G1 X-15 Y40 F2000            ; fast wipe,G1 X-17 Y70 F2000            ; fast wipe,G1 X-15 Y30 Z2 F2000         ; fast wipe,G1 X-17 Y35 F2000            ; fast wipe,G1 X-15 Y25 F2000            ; fast wipe,G1 X-17 Y30 F2000            ; fast wipe,G1 X-15 Y25 Z1.5 F1000       ; slow wipe,G1 X-17 Y23 F1000            ; slow wipe,G1 Z10                       ; raise extruder,M109 S150                    ; heat to probe temp,G1 X-9 Y-9                   ; move above probe,M204 S100                    ; set accel for probing,G29                          ; probe sequence (for auto-leveling),M204 S500                    ; set accel back to normal,G1 X0 Y0 Z15 F5000           ; get out the way,M400                         ; clear buffer,G4 S1                        ; pause,M117 Heating...              ; LCD status message,M140 S[bed0_temperature]     ; get bed heating up,M109 S[extruder0_temperature]; set extruder temp and wait,M190 S[bed0_temperature]     ; get bed temping up during first layer,G1 Z2 E0 F400                ; prime extruder,M117 TAZ6 Printing...        ; LCD status message
;   layerChangeGcode,
;   retractionGcode,
;   toolChangeGcode,
;   endingGcode,;,M400                           ; wait for moves to finish,M104 S0                        ; hotend off,M107                           ; fans off,G91                            ; relative positioning,G1 E-1 F100                    ; retract the filament a bit before lifting the nozzle, to release some of the pressure,;G1 Z+20 E-5 X-20 Y-20 F3000   ; move Z up a bit and retract filament even more,G1 Z+20 X-20 Y-20 F3000        ; move Z up a bit, do not retract filament,M117 Cooling please wait       ; progress indicator message,G90                            ; absolute positioning,G1 Y0 F3000                    ; move to cooling position,M190 S50                       ; set bed to cool off,G1 Y280 F3000                  ; present finished print,M140 S50                       ; leave bed at 50,M84                            ; steppers off,G90                            ; absolute positioning,M117 Print complete            ; progress indicator message,;
;   exportFileFormat,gcode
;   celebration,0
;   celebrationSong,Random Song
;   postProcessing,
;   defaultSpeed,3600
;   outlineUnderspeed,0.5
;   solidInfillUnderspeed,0.8
;   supportUnderspeed,0.8
;   rapidXYspeed,10500
;   rapidZspeed,1002
;   minBridgingArea,50
;   bridgingExtraInflation,0
;   bridgingExtrusionMultiplier,1
;   bridgingSpeedMultiplier,1
;   filamentDiameter,2.85
;   filamentPricePerKg,46
;   filamentDensity,1.25
;   useMinPrintHeight,0
;   minPrintHeight,0
;   useMaxPrintHeight,0
;   maxPrintHeight,0
;   useDiaphragm,0
;   diaphragmLayerInterval,20
;   robustSlicing,1
;   mergeAllIntoSolid,0
;   onlyRetractWhenCrossingOutline,1
;   retractBetweenLayers,1
;   useRetractionMinTravel,0
;   retractionMinTravel,3
;   retractWhileWiping,0
;   onlyWipeOutlines,1
;   avoidCrossingOutline,0
;   maxMovementDetourFactor,3
;   toolChangeRetractionDistance,12
;   toolChangeExtraRestartDistance,-0.5
;   toolChangeRetractionSpeed,600
;   allowThinWallGapFill,1
;   thinWallAllowedOverlapPercentage,10
;   horizontalSizeCompensation,0
G90
M82
M106 S0
;This profile is designed specifically for LulzBot TAZ 6 3D Printer by Lulzbot.com
G26                          ; clear potential 'probe fail' condition
G21                          ; set units to Millimetres
M107                         ; disable fans
G90                          ; absolute positioning
M82                          ; set extruder to absolute mode
G92 E0                       ; set extruder position to 0
M140 S60     ; get bed heating up
M117 Print by John Bryant    ; LCD status message
G28 XY                       ; home X and Y
G1 X-19 Y258 F1000           ; move to safe homing position
M109 S160                    ; soften filament for z homing
G28 Z                        ; home Z
M104 S150                    ; wipe temp
G1 E-30 F100                 ; suck up 12mm of filament
G1 X-15 Y100 F3000           ; move above wiper pad
G1 Z1                        ; push nozzle into wiper
G1 X-17 Y95 F1000            ; slow wipe
G1 X-17 Y90 F1000            ; slow wipe
G1 X-17 Y85 F1000            ; slow wipe
G1 X-15 Y90 F1000            ; slow wipe
G1 X-17 Y80 F1000            ; slow wipe
G1 X-15 Y95 F1000            ; slow wipe
G1 X-17 Y75 F2000            ; fast wipe
G1 X-15 Y65 F2000            ; fast wipe
G1 X-17 Y70 F2000            ; fast wipe
G1 X-15 Y60 F2000            ; fast wipe
G1 X-17 Y55 F2000            ; fast wipe
G1 X-15 Y50 F2000            ; fast wipe
G1 X-17 Y40 F2000            ; fast wipe
G1 X-15 Y45 F2000            ; fast wipe
G1 X-17 Y35 F2000            ; fast wipe
G1 X-15 Y40 F2000            ; fast wipe
G1 X-17 Y70 F2000            ; fast wipe
G1 X-15 Y30 Z2 F2000         ; fast wipe
G1 X-17 Y35 F2000            ; fast wipe
G1 X-15 Y25 F2000            ; fast wipe
G1 X-17 Y30 F2000            ; fast wipe
G1 X-15 Y25 Z1.5 F1000       ; slow wipe
G1 X-17 Y23 F1000            ; slow wipe
G1 Z10                       ; raise extruder
M109 S150                    ; heat to probe temp
G1 X-9 Y-9                   ; move above probe
M204 S100                    ; set accel for probing
G29                          ; probe sequence (for auto-leveling)
M204 S500                    ; set accel back to normal
G1 X0 Y0 Z15 F5000           ; get out the way
M400                         ; clear buffer
G4 S1                        ; pause
M117 Heating...              ; LCD status message
M140 S60     ; get bed heating up
M109 S205; set extruder temp and wait
M190 S60     ; get bed temping up during first layer
G1 Z2 E0 F400                ; prime extruder
M117 TAZ6 Printing...        ; LCD status message
G92 E0
G1 E-1.5000 F1800
G1 Z0.423 F1002
; layer 1, Z = 0.423
T0
; tool H0.423 W0.500
; skirt
G1 X95.631 Y135.000 F10500
G1 E0.0000 F540
G92 E0
G1 X95.907 Y134.885 E0.0089 F1800
G1 X121.176 Y134.885 E0.7629
G1 X121.451 Y135.000 E0.7718
G1 X121.541 Y135.089 E0.7756
G1 X121.631 Y135.000 E0.7794
G1 X121.907 Y134.885 E0.7883
G1 X147.176 Y134.885 E1.5423
G1 X147.451 Y135.000 E1.5512
G1 X147.541 Y135.089 E1.5549
G1 X147.631 Y135.000 E1.5587
G1 X147.907 Y134.885 E1.5676
G1 X173.176 Y134.885 E2.3216
G1 X173.451 Y135.000 E2.3305
G1 X177.177 Y138.725 E2.4877
G1 X177.291 Y139.001 E2.4966
G1 X177.291 Y164.270 E3.2506
G1 X177.177 Y164.545 E3.2595
G1 X173.451 Y168.271 E3.4167
G1 X173.176 Y168.385 E3.4256
G1 X147.907 Y168.385 E4.1796
G1 X147.631 Y168.271 E4.1885
G1 X147.541 Y168.181 E4.1923
G1 X147.451 Y168.271 E4.1961
G1 X147.176 Y168.385 E4.2050
G1 X121.907 Y168.385 E4.9590
G1 X121.631 Y168.271 E4.9679
G1 X121.541 Y168.181 E4.9717
G1 X121.451 Y168.271 E4.9755
G1 X121.176 Y168.385 E4.9844
G1 X95.907 Y168.385 E5.7384
G1 X95.631 Y168.271 E5.7473
G1 X91.905 Y164.545 E5.9045
G1 X91.791 Y164.270 E5.9134
G1 X91.791 Y139.001 E6.6674
G1 X91.905 Y138.725 E6.6763
G1 X95.631 Y135.000 E6.8335
G1 X95.914 Y135.423 F10500
G92 E0
G1 X96.006 Y135.385 E0.0030 F1800
G1 X121.076 Y135.385 E0.7510
G1 X121.168 Y135.423 E0.7540
G1 X121.541 Y135.797 E0.7697
G1 X121.914 Y135.423 E0.7855
G1 X122.006 Y135.385 E0.7884
G1 X147.076 Y135.385 E1.5365
G1 X147.168 Y135.423 E1.5394
G1 X147.541 Y135.797 E1.5552
G1 X147.914 Y135.423 E1.5709
G1 X148.006 Y135.385 E1.5739
G1 X173.076 Y135.385 E2.3219
G1 X173.168 Y135.423 E2.3249
G1 X176.753 Y139.008 E2.4762
G1 X176.791 Y139.100 E2.4792
G1 X176.791 Y164.170 E3.2272
G1 X176.753 Y164.262 E3.2302
G1 X173.168 Y167.847 E3.3815
G1 X173.076 Y167.885 E3.3844
G1 X148.006 Y167.885 E4.1325
G1 X147.914 Y167.847 E4.1354
G1 X147.541 Y167.474 E4.1512
G1 X147.168 Y167.847 E4.1669
G1 X147.076 Y167.885 E4.1699
G1 X122.006 Y167.885 E4.9179
G1 X121.914 Y167.847 E4.9209
G1 X121.541 Y167.474 E4.9367
G1 X121.168 Y167.847 E4.9524
G1 X121.076 Y167.885 E4.9554
G1 X96.006 Y167.885 E5.7034
G1 X95.914 Y167.847 E5.7064
G1 X92.329 Y164.262 E5.8577
G1 X92.291 Y164.170 E5.8606
G1 X92.291 Y139.100 E6.6087
G1 X92.329 Y139.008 E6.6116
G1 X95.914 Y135.423 E6.7629
G92 E0
G1 E-1.5000 F1800
; tool H0.423 W0.625
; inner perimeter
G1 X100.104 Y143.198 F10500
G1 E0.0000 F1800
G92 E0
G1 X116.979 Y143.198 E0.6294 F1500
G1 X116.979 Y160.073 E1.2588
G1 X100.104 Y160.073 E1.8882
G1 X100.104 Y143.198 E2.5176
; inner perimeter
G1 X99.479 Y142.573 F10500
G92 E0
G1 X117.604 Y142.573 E0.6760 F1200
G1 X117.604 Y160.698 E1.3520
G1 X99.479 Y160.698 E2.0281
G1 X99.479 Y142.573 E2.7041
; outer perimeter
G1 X98.854 Y141.948 F10500
G92 E0
G1 X118.229 Y141.948 E0.7226 F900
G1 X118.229 Y161.323 E1.4453
G1 X98.854 Y161.323 E2.1679
G1 X98.854 Y141.948 E2.8906
; solid layer
G1 X116.028 Y143.729 F10500
G92 E0
G1 X116.447 Y144.148 E0.0221 F1440
G1 X116.447 Y145.032 E0.0551
G1 X115.144 Y143.729 E0.1238
G1 X114.260 Y143.729 E0.1568
G1 X116.447 Y145.916 E0.2721
G1 X116.447 Y146.800 E0.3051
G1 X113.377 Y143.729 E0.4671
G1 X112.493 Y143.729 E0.5000
G1 X116.447 Y147.684 E0.7086
G1 X116.447 Y148.568 E0.7416
G1 X111.609 Y143.729 E0.9968
G1 X110.725 Y143.729 E1.0298
G1 X116.447 Y149.452 E1.3316
G1 X116.447 Y150.335 E1.3646
G1 X109.841 Y143.729 E1.7130
G1 X108.957 Y143.729 E1.7460
G1 X116.447 Y151.219 E2.1411
G1 X116.447 Y152.103 E2.1741
G1 X108.073 Y143.729 E2.6158
G1 X107.189 Y143.729 E2.6487
G1 X116.447 Y152.987 E3.1371
G1 X116.447 Y153.871 E3.1700
G1 X106.306 Y143.729 E3.7050
G1 X105.422 Y143.729 E3.7379
G1 X116.447 Y154.755 E4.3195
G1 X116.447 Y155.639 E4.3525
G1 X104.538 Y143.729 E4.9807
G1 X103.654 Y143.729 E5.0136
G1 X116.447 Y156.523 E5.6885
G1 X116.447 Y157.406 E5.7214
G1 X102.770 Y143.729 E6.4429
G1 X101.886 Y143.729 E6.4758
G1 X116.447 Y158.290 E7.2439
G1 X116.447 Y159.174 E7.2769
G1 X101.002 Y143.729 E8.0915
G1 X100.635 Y143.729 E8.1052
G1 X100.635 Y144.246 E8.1245
G1 X115.931 Y159.542 E8.9313
G1 X115.047 Y159.542 E8.9643
G1 X100.635 Y145.129 E9.7245
G1 X100.635 Y146.013 E9.7575
G1 X114.163 Y159.542 E10.4710
G1 X113.279 Y159.542 E10.5040
G1 X100.635 Y146.897 E11.1710
G1 X100.635 Y147.781 E11.2039
G1 X112.395 Y159.542 E11.8243
G1 X111.511 Y159.542 E11.8572
G1 X100.635 Y148.665 E12.4309
G1 X100.635 Y149.549 E12.4639
G1 X110.628 Y159.542 E12.9910
G1 X109.744 Y159.542 E13.0240
G1 X100.635 Y150.433 E13.5044
G1 X100.635 Y151.317 E13.5374
G1 X108.860 Y159.542 E13.9712
G1 X107.976 Y159.542 E14.0042
G1 X100.635 Y152.201 E14.3914
G1 X100.635 Y153.084 E14.4244
G1 X107.092 Y159.542 E14.7650
G1 X106.208 Y159.542 E14.7979
G1 X100.635 Y153.968 E15.0919
G1 X100.635 Y154.852 E15.1249
G1 X105.324 Y159.542 E15.3722
G1 X104.440 Y159.542 E15.4052
G1 X100.635 Y155.736 E15.6059
G1 X100.635 Y156.620 E15.6389
G1 X103.556 Y159.542 E15.7930
