; G-Code generated by Simplify3D(R) Version 3.1.0
; Sep 25, 2016 at 1:36:17 PM
; Settings Summary
;   processName,Process1
;   applyToModels,20_cube
;   profileName,Lulzbot TAZ 6 PLA
;   profileVersion,2016-09-25 10:52:26
;   baseProfile,LulzBot TAZ 6 Single
;   printMaterial,PLA
;   printQuality,Standard
;   printExtruders,
;   extruderName,Primary Extruder
;   extruderToolheadNumber,0
;   extruderDiameter,0.5
;   extruderAutoWidth,0
;   extruderWidth,0.5
;   extrusionMultiplier,0.9
;   extruderUseRetract,1
;   extruderRetractionDistance,1.5
;   extruderExtraRestartDistance,0
;   extruderRetractionZLift,0
;   extruderRetractionSpeed,1800
;   extruderUseCoasting,0
;   extruderCoastingDistance,0.2
;   extruderUseWipe,0
;   extruderWipeDistance,5
;   primaryExtruder,0
;   layerHeight,0.2
;   topSolidLayers,3
;   bottomSolidLayers,3
;   perimeterOutlines,3
;   printPerimetersInsideOut,1
;   startPointOption,2
;   startPointOriginX,0
;   startPointOriginY,0
;   startPointOriginZ,300
;   sequentialIslands,0
;   spiralVaseMode,0
;   firstLayerHeightPercentage,213
;   firstLayerWidthPercentage,125
;   firstLayerUnderspeed,0.5
;   useRaft,0
;   raftExtruder,0
;   raftLayers,3
;   raftOffset,3
;   raftSeparationDistance,0.14
;   raftInfill,85
;   disableRaftBaseLayers,0
;   useSkirt,1
;   skirtExtruder,0
;   skirtLayers,1
;   skirtOutlines,2
;   skirtOffset,6
;   usePrimePillar,0
;   primePillarExtruder,999
;   primePillarWidth,12
;   primePillarLocation,7
;   primePillarSpeedMultiplier,1
;   useOozeShield,0
;   oozeShieldExtruder,999
;   oozeShieldOffset,2
;   oozeShieldOutlines,1
;   oozeShieldSidewallShape,1
;   oozeShieldSidewallAngle,30
;   oozeShieldSpeedMultiplier,1
;   infillExtruder,0
;   internalInfillPattern,Rectilinear
;   externalInfillPattern,Rectilinear
;   infillPercentage,20
;   outlineOverlapPercentage,15
;   infillExtrusionWidthPercentage,200
;   minInfillLength,5
;   infillLayerInterval,1
;   infillAngles,45,-45
;   overlapInfillAngles,0
;   generateSupport,0
;   supportExtruder,0
;   supportInfillPercentage,30
;   supportExtraInflation,0
;   denseSupportLayers,0
;   denseSupportInfillPercentage,70
;   supportLayerInterval,1
;   supportHorizontalPartOffset,0.3
;   supportUpperSeparationLayers,1
;   supportLowerSeparationLayers,1
;   supportType,0
;   supportGridSpacing,4
;   maxOverhangAngle,45
;   supportAngles,0
;   temperatureName,Primary Extruder,Heated Bed
;   temperatureNumber,0,0
;   temperatureSetpointCount,1,1
;   temperatureSetpointLayers,1,1
;   temperatureSetpointTemperatures,205,60
;   temperatureStabilizeAtStartup,1,1
;   temperatureHeatedBed,0,1
;   temperatureRelayBetweenLayers,0,0
;   temperatureRelayBetweenLoops,0,0
;   fanLayers,1,2
;   fanSpeeds,0,100
;   blipFanToFullPower,1
;   adjustSpeedForCooling,1
;   minSpeedLayerTime,15
;   minCoolingSpeedSlowdown,20
;   increaseFanForCooling,0
;   minFanLayerTime,45
;   maxCoolingFanSpeed,100
;   increaseFanForBridging,0
;   bridgingFanSpeed,100
;   use5D,1
;   relativeEdistances,0
;   allowEaxisZeroing,1
;   independentExtruderAxes,0
;   includeM10123,0
;   stickySupport,1
;   applyToolheadOffsets,0
;   gcodeXoffset,0
;   gcodeYoffset,0
;   gcodeZoffset,0
;   overrideMachineDefinition,1
;   machineTypeOverride,0
;   strokeXoverride,280
;   strokeYoverride,280
;   strokeZoverride,250
;   originOffsetXoverride,0
;   originOffsetYoverride,0
;   originOffsetZoverride,0
;   homeXdirOverride,-1
;   homeYdirOverride,-1
;   homeZdirOverride,-1
;   flipXoverride,1
;   flipYoverride,-1
;   flipZoverride,1
;   toolheadOffsets,0,0|0,0|0,0|0,0|0,0|0,0
;   overrideFirmwareConfiguration,1
;   firmwareTypeOverride,RepRap (Marlin/Repetier/Sprinter)
;   GPXconfigOverride,r2
;   baudRateOverride,250000
;   overridePrinterModels,1
;   printerModelsOverride,LulzBot_TAZ6.stl
;   startingGcode,;This profile is designed specifically for LulzBot TAZ 6 3D Printer by Lulzbot.com,G26                          ; clear potential 'probe fail' condition,G21                          ; set units to Millimetres,M107                         ; disable fans,G90                          ; absolute positioning,M82                          ; set extruder to absolute mode,G92 E0                       ; set extruder position to 0,M140 S[bed0_temperature]     ; get bed heating up,M117 Print by John Bryant    ; LCD status message,G28 XY                       ; home X and Y,G1 X-19 Y258 F1000           ; move to safe homing position,M109 S160                    ; soften filament for z homing,G28 Z                        ; home Z,M104 S150                    ; wipe temp,G1 E-30 F100                 ; suck up 12mm of filament,G1 X-15 Y100 F3000           ; move above wiper pad,G1 Z1                        ; push nozzle into wiper,G1 X-17 Y95 F1000            ; slow wipe,G1 X-17 Y90 F1000            ; slow wipe,G1 X-17 Y85 F1000            ; slow wipe,G1 X-15 Y90 F1000            ; slow wipe,G1 X-17 Y80 F1000            ; slow wipe,G1 X-15 Y95 F1000            ; slow wipe,G1 X-17 Y75 F2000            ; fast wipe,G1 X-15 Y65 F2000            ; fast wipe,G1 X-17 Y70 F2000            ; fast wipe,G1 X-15 Y60 F2000            ; fast wipe,G1 X-17 Y55 F2000            ; fast wipe,G1 X-15 Y50 F2000            ; fast wipe,G1 X-17 Y40 F2000            ; fast wipe,G1 X-15 Y45 F2000            ; fast wipe,G1 X-17 Y35 F2000            ; fast wipe,G1 X-15 Y40 F2000            ; fast wipe,G1 X-17 Y70 F2000            ; fast wipe,G1 X-15 Y30 Z2 F2000         ; fast wipe,G1 X-17 Y35 F2000            ; fast wipe,G1 X-15 Y25 F2000            ; fast wipe,G1 X-17 Y30 F2000            ; fast wipe,G1 X-15 Y25 Z1.5 F1000       ; slow wipe,G1 X-17 Y23 F1000            ; slow wipe,G1 Z10                       ; raise extruder,M109 S150                    ; heat to probe temp,G1 X-9 Y-9                   ; move above probe,M204 S100                    ; set accel for probing,G29                          ; probe sequence (for auto-leveling),M204 S500                    ; set accel back to normal,G1 X0 Y0 Z15 F5000           ; get out the way,M400                         ; clear buffer,G4 S1                        ; pause,M117 Heating...              ; LCD status message,M140 S[bed0_temperature]     ; get bed heating up,M109 S[extruder0_temperature]; set extruder temp and wait,M190 S[bed0_temperature]     ; get bed temping up during first layer,G1 Z2 E0 F400                ; prime extruder,M117 TAZ6 Printing...        ; LCD status message
;   layerChangeGcode,
;   retractionGcode,
;   toolChangeGcode,
;   endingGcode,;,M400                           ; wait for moves to finish,M104 S0                        ; hotend off,M107                           ; fans off,G91                            ; relative positioning,G1 E-1 F100                    ; retract the filament a bit before lifting the nozzle, to release some of the pressure,;G1 Z+20 E-5 X-20 Y-20 F3000   ; move Z up a bit and retract filament even more,G1 Z+20 X-20 Y-20 F3000        ; move Z up a bit, do not retract filament,M117 Cooling please wait       ; progress indicator message,G90                            ; absolute positioning,G1 Y0 F3000                    ; move to cooling position,M190 S50                       ; set bed to cool off,G1 Y280 F3000                  ; present finished print,M140 S50                       ; leave bed at 50,M84                            ; steppers off,G90                            ; absolute positioning,M117 Print complete            ; progress indicator message,;
;   exportFileFormat,gcode
;   celebration,0
;   celebrationSong,Random Song
;   postProcessing,
;   defaultSpeed,3600
;   outlineUnderspeed,0.5
;   solidInfillUnderspeed,0.8
;   supportUnderspeed,0.8
;   rapidXYspeed,10500
;   rapidZspeed,1002
;   minBridgingArea,50
;   bridgingExtraInflation,0
;   bridgingExtrusionMultiplier,0.9
;   bridgingSpeedMultiplier,1
;   filamentDiameter,2.85
;   filamentPricePerKg,46
;   filamentDensity,1.25
;   useMinPrintHeight,0
;   minPrintHeight,0
;   useMaxPrintHeight,0
;   maxPrintHeight,0
;   useDiaphragm,0
;   diaphragmLayerInterval,20
;   robustSlicing,1
;   mergeAllIntoSolid,0
;   onlyRetractWhenCrossingOutline,1
;   retractBetweenLayers,1
;   useRetractionMinTravel,0
;   retractionMinTravel,3
;   retractWhileWiping,0
;   onlyWipeOutlines,1
;   avoidCrossingOutline,0
;   maxMovementDetourFactor,3
;   toolChangeRetractionDistance,12
;   toolChangeExtraRestartDistance,-0.5
;   toolChangeRetractionSpeed,600
;   allowThinWallGapFill,1
;   thinWallAllowedOverlapPercentage,10
;   horizontalSizeCompensation,0
G90
M82
M106 S0
;This profile is designed specifically for LulzBot TAZ 6 3D Printer by Lulzbot.com
G26                          ; clear potential 'probe fail' condition
G21                          ; set units to Millimetres
M107                         ; disable fans
G90                          ; absolute positioning
M82                          ; set extruder to absolute mode
G92 E0                       ; set extruder position to 0
M140 S60     ; get bed heating up
M117 Print by John Bryant    ; LCD status message
G28 XY                       ; home X and Y
G1 X-19 Y258 F1000           ; move to safe homing position
M109 S160                    ; soften filament for z homing
G28 Z                        ; home Z
M104 S150                    ; wipe temp
G1 E-30 F100                 ; suck up 12mm of filament
G1 X-15 Y100 F3000           ; move above wiper pad
G1 Z1                        ; push nozzle into wiper
G1 X-17 Y95 F1000            ; slow wipe
G1 X-17 Y90 F1000            ; slow wipe
G1 X-17 Y85 F1000            ; slow wipe
G1 X-15 Y90 F1000            ; slow wipe
G1 X-17 Y80 F1000            ; slow wipe
G1 X-15 Y95 F1000            ; slow wipe
G1 X-17 Y75 F2000            ; fast wipe
G1 X-15 Y65 F2000            ; fast wipe
G1 X-17 Y70 F2000            ; fast wipe
G1 X-15 Y60 F2000            ; fast wipe
G1 X-17 Y55 F2000            ; fast wipe
G1 X-15 Y50 F2000            ; fast wipe
G1 X-17 Y40 F2000            ; fast wipe
G1 X-15 Y45 F2000            ; fast wipe
G1 X-17 Y35 F2000            ; fast wipe
G1 X-15 Y40 F2000            ; fast wipe
G1 X-17 Y70 F2000            ; fast wipe
G1 X-15 Y30 Z2 F2000         ; fast wipe
G1 X-17 Y35 F2000            ; fast wipe
G1 X-15 Y25 F2000            ; fast wipe
G1 X-17 Y30 F2000            ; fast wipe
G1 X-15 Y25 Z1.5 F1000       ; slow wipe
G1 X-17 Y23 F1000            ; slow wipe
G1 Z10                       ; raise extruder
M109 S150                    ; heat to probe temp
G1 X-9 Y-9                   ; move above probe
M204 S100                    ; set accel for probing
G29                          ; probe sequence (for auto-leveling)
M204 S500                    ; set accel back to normal
G1 X0 Y0 Z15 F5000           ; get out the way
M400                         ; clear buffer
G4 S1                        ; pause
M117 Heating...              ; LCD status message
M140 S60     ; get bed heating up
M109 S205; set extruder temp and wait
M190 S60     ; get bed temping up during first layer
G1 Z2 E0 F400                ; prime extruder
M117 TAZ6 Printing...        ; LCD status message
G92 E0
G1 E-1.5000 F1800
G1 Z0.426 F1002
; layer 1, Z = 0.426
T0
; tool H0.426 W0.625
; skirt
G1 X123.364 Y127.090 F10500
G1 E0.0000 F540
G92 E0
G1 X127.090 Y123.364 E0.1979 F1800
G1 X127.366 Y123.250 E0.2091
G1 X152.634 Y123.250 E1.1583
G1 X152.910 Y123.364 E1.1695
G1 X156.636 Y127.090 E1.3674
G1 X156.750 Y127.366 E1.3786
G1 X156.750 Y152.634 E2.3278
G1 X156.636 Y152.910 E2.3390
G1 X152.910 Y156.636 E2.5369
G1 X152.634 Y156.750 E2.5481
G1 X127.366 Y156.750 E3.4973
G1 X127.090 Y156.636 E3.5085
G1 X123.364 Y152.910 E3.7064
G1 X123.250 Y152.634 E3.7176
G1 X123.250 Y127.366 E4.6667
G1 X123.364 Y127.090 E4.6780
G1 X123.788 Y127.373 F10500
G92 E0
G1 X127.373 Y123.788 E0.1904 F1800
G1 X127.465 Y123.750 E0.1942
G1 X152.535 Y123.750 E1.1359
G1 X152.627 Y123.788 E1.1396
G1 X156.212 Y127.373 E1.3300
G1 X156.250 Y127.465 E1.3338
G1 X156.250 Y152.535 E2.2755
G1 X156.212 Y152.627 E2.2792
G1 X152.627 Y156.212 E2.4696
G1 X152.535 Y156.250 E2.4734
G1 X127.465 Y156.250 E3.4151
G1 X127.373 Y156.212 E3.4188
G1 X123.788 Y152.627 E3.6092
G1 X123.750 Y152.535 E3.6130
G1 X123.750 Y127.465 E4.5547
G1 X123.788 Y127.373 E4.5584
G92 E0
G1 E-1.5000 F1800
; inner perimeter
G1 X131.562 Y131.562 F10500
G1 E0.0000 F1800
G92 E0
G1 X148.438 Y131.562 E0.6339 F1500
G1 X148.438 Y148.438 E1.2677
G1 X131.562 Y148.438 E1.9016
G1 X131.562 Y131.562 E2.5355
; inner perimeter
G1 X130.938 Y130.938 F10500
G92 E0
G1 X149.062 Y130.938 E0.6808 F1200
G1 X149.062 Y149.062 E1.3616
G1 X130.938 Y149.062 E2.0425
G1 X130.938 Y130.938 E2.7233
; outer perimeter
G1 X130.312 Y130.312 F10500
G92 E0
G1 X149.688 Y130.312 E0.7278 F900
G1 X149.688 Y149.688 E1.4555
G1 X130.312 Y149.688 E2.1833
G1 X130.312 Y130.312 E2.9111
; solid layer
G1 X147.120 Y132.094 F10500
G92 E0
G1 X147.906 Y132.880 E0.0418 F1440
G1 X147.906 Y133.764 E0.0750
G1 X146.236 Y132.094 E0.1637
G1 X145.352 Y132.094 E0.1969
G1 X147.906 Y134.648 E0.3326
G1 X147.906 Y135.532 E0.3658
G1 X144.468 Y132.094 E0.5484
G1 X143.584 Y132.094 E0.5816
G1 X147.906 Y136.416 E0.8112
G1 X147.906 Y137.300 E0.8444
G1 X142.700 Y132.094 E1.1210
G1 X141.816 Y132.094 E1.1542
G1 X147.906 Y138.184 E1.4777
G1 X147.906 Y139.067 E1.5109
G1 X140.933 Y132.094 E1.8813
G1 X140.049 Y132.094 E1.9145
G1 X147.906 Y139.951 E2.3319
G1 X147.906 Y140.835 E2.3651
G1 X139.165 Y132.094 E2.8295
G1 X138.281 Y132.094 E2.8627
G1 X147.906 Y141.719 E3.3740
G1 X147.906 Y142.603 E3.4072
G1 X137.397 Y132.094 E3.9654
G1 X136.513 Y132.094 E3.9986
G1 X147.906 Y143.487 E4.6038
G1 X147.906 Y144.371 E4.6370
G1 X135.629 Y132.094 E5.2892
G1 X134.745 Y132.094 E5.3224
G1 X147.906 Y145.255 E6.0215
G1 X147.906 Y146.138 E6.0547
G1 X133.862 Y132.094 E6.8008
G1 X132.978 Y132.094 E6.8340
G1 X147.906 Y147.022 E7.6270
G1 X147.906 Y147.906 E7.6602
G1 X132.094 Y132.094 E8.5002
G1 X132.094 Y132.978 E8.5334
G1 X147.022 Y147.906 E9.3264
G1 X146.138 Y147.906 E9.3596
G1 X132.094 Y133.862 E10.1057
G1 X132.094 Y134.745 E10.1389
G1 X145.255 Y147.906 E10.8380
G1 X144.371 Y147.906 E10.8712
G1 X132.094 Y135.629 E11.5234
G1 X132.094 Y136.513 E11.5566
G1 X143.487 Y147.906 E12.1618
G1 X142.603 Y147.906 E12.1950
G1 X132.094 Y137.397 E12.7533
G1 X132.094 Y138.281 E12.7865
G1 X141.719 Y147.906 E13.2978
G1 X140.835 Y147.906 E13.3310
G1 X132.094 Y139.165 E13.7953
G1 X132.094 Y140.049 E13.8285
G1 X139.951 Y147.906 E14.2459
G1 X139.067 Y147.906 E14.2791
G1 X132.094 Y140.933 E14.6496
G1 X132.094 Y141.816 E14.6828
G1 X138.184 Y147.906 E15.0063
G1 X137.300 Y147.906 E15.0395
G1 X132.094 Y142.700 E15.3160
G1 X132.094 Y143.584 E15.3492
G1 X136.416 Y147.906 E15.5788
G1 X135.532 Y147.906 E15.6120
G1 X132.094 Y144.468 E15.7947
G1 X132.094 Y145.352 E15.8279
G1 X134.648 Y147.906 E15.9636
G1 X133.764 Y147.906 E15.9968
G1 X132.094 Y146.236 E16.0855
G1 X132.094 Y147.120 E16.1187
G1 X132.880 Y147.906 E16.1605
G92 E0
G1 E-1.5000 F1800
; layer 2, Z = 0.626
M106 S255
; tool H0.200 W0.500
; inner perimeter
G1 X131.250 Y148.750 F10500
G1 Z0.626 F1002
G1 E0.0000 F1800
G92 E0
G1 X131.250 Y131.250 E0.2469 F3000
G1 X148.750 Y131.250 E0.4938
G1 X148.750 Y148.750 E0.7407
G1 X131.250 Y148.750 E0.9876
; inner perimeter
G1 X130.750 Y149.250 F10500
G92 E0
G1 X130.750 Y130.750 E0.2610 F2400
G1 X149.250 Y130.750 E0.5220
G1 X149.250 Y149.250 E0.7830
G1 X130.750 Y149.250 E1.0440
; outer perimeter
G1 X130.250 Y149.750 F10500
G92 E0
G1 X130.250 Y130.250 E0.2751 F1800
G1 X149.750 Y130.250 E0.5502
G1 X149.750 Y149.750 E0.8253
G1 X130.250 Y149.750 E1.1004
; solid layer
G1 X131.675 Y132.062 F10500
G92 E0
G1 X132.062 Y131.675 E0.0077 F2880
G1 X132.769 Y131.675 E0.0177
G1 X131.675 Y132.769 E0.0395
G1 X131.675 Y133.476 E0.0495
G1 X133.476 Y131.675 E0.0854
G1 X134.183 Y131.675 E0.0954
G1 X131.675 Y134.183 E0.1454
G1 X131.675 Y134.890 E0.1554
G1 X134.890 Y131.675 E0.2195
G1 X135.597 Y131.675 E0.2295
G1 X131.675 Y135.597 E0.3078
G1 X131.675 Y136.304 E0.3178
G1 X136.304 Y131.675 E0.4101
